X: 43073
T: Wind That Shakes The Barley, The
R: reel
M: 4/4
K: Dmajor
"D" A3 A- ADFA|"G" BDGA B2 dB|"D" ADPED A3 e|"G" fded BddB|
"D" ADPED ADPED|"G" BAGA B2 dB|"D" ADPED A3 e|"G" fded Bdde||
"D" f2 df"G" g2 eg|"D" fedf"A" e2 de|"D" fdfd"G" a3 a-|"A" afed Bdde|
"D" f2 df"G" fgeg|"D" fedf"A" e2 (3ABc|"D" defg a3 a-|"G" afed Bd{/e}dB||

